X: 15041
T: the Breas of Balandine
%R: air, waltz, minuet
B: James Oswald "The Caledonian Pocket Companion" v.1 b.5 p.4
S: https://ia800501.us.archive.org/18/items/caledonianpocket01rugg/caledonianpocket01rugg_bw.pdf
Z: 2020 John Chambers <jc:trillian.mit.edu>
M: 3/4
L: 1/8
K: D
%%slurgraces 1
%%graceslurs 1
"_Tender"d>e |\
{e}f2 a2 a>b | a4 (b/c'/d') | (ba)(gf)(ed) | {d2}e4 d>e |\
{e}f2 a2 (a/b/c') | d'3 c'b2 | a>b a<f Te>d | d4 :|
|: (FG) |\
A3 B (dA) | {A}B2 d2 (e/f/g) | {g}f3 e (f/e/d) | B4 (a/b/c') |\
d'2 d2 (d/e/f) | e2 f2 a2 | b2 a>gf>g | {f2}e4
d>e |\
{e}f2 a2 (a/b/c') | d'3 c'b2 | a>b (a<f) Te>d | B4 d>e |\
{e}f2 a2 A2 | B2 d2 b>d' | a>b (a<f) Te>d | d4 :|
|: d>e |\
(fd)(af)(d'b) | {b2}a4 (f/a/d') | (ba) (3(fd'b) {b}af | {f2}e4 d>e |\
f>g (3(afg) (abc') | (d'c'ba) (fb) | a>b (a/g/f) ({f}e>d) | d4 :|
|: F>G |\
A3 B (dB/A/) | {A}B2 d2 e2 | f>g (a/g/f) (e/d/e/f/) | d4 (a/b/c') |\
d'2 (3(def) (3afd | (e2 f2) a2 | (ba/b/) d'b{b}af | {f2}e4
d>e |\
{e}f2 a2 (a/b/c') | (d'c'ba) (fb) | (a/b/d'/b/) (a/b/a/f/) (a/f/e/d/) | B4 d>e |\
{e}f2 a2 (3(AB=c) | B2 d2 (b/a/b/d'/) | a>b (a>f) (Te3/d//e//) | d4 :|
